dist/img/svg/logo.svg

<svg width="66" height="44" viewBox="0 0 66 44" fill="none" xmlns="http://www.w3.org/2000/svg">
<g clip-path="url(#clip0_549_79)">
<path d="M8.92112 20.9506H2.23213V17.4324H8.92112V20.9506ZM66 15.1901H64.591H64.198H64.1609C63.8272 15.1901 63.4935 15.3487 63.3155 15.6431L59.3036 22.3624L55.2917 15.6431C55.1137 15.3487 54.78 15.1901 54.4463 15.1901H54.0236C53.2449 15.1901 52.622 15.8016 52.622 16.5944V26.9828V28.3569V28.8099H53.067H54.4018H54.4092C54.6465 28.8023 54.8467 28.5985 54.8467 28.3569V18.8895L58.1467 24.2498C58.3915 24.499 58.6584 24.7028 58.9921 24.7028H59.6151C59.9488 24.7028 60.2157 24.499 60.4604 24.2498L63.7604 18.8895V28.3569C63.7604 28.606 63.9607 28.8099 64.2054 28.8099H65.5402C65.7849 28.8099 65.9852 28.606 65.9852 28.3569C66 23.9629 66 19.5765 66 15.1901ZM50.6124 15.1901H50.1674H48.8326H48.8252C48.5879 15.1977 48.3876 15.4015 48.3876 15.6431V26.5374H41.6987V15.6431C41.6987 15.394 41.4984 15.1901 41.2537 15.1901H39.9189C39.6742 15.1901 39.4739 15.394 39.4739 15.6431V26.9828V27.3981V28.8023H40.8533H41.2685H49.2405C50.0191 28.8023 50.6198 28.1908 50.6198 27.3981C50.6124 23.3288 50.6124 19.2594 50.6124 15.1901ZM37.4569 15.1901H37.0119H35.6771H35.6697C35.4324 15.1977 35.2321 15.4015 35.2321 15.6431V25.3143L28.9658 15.6431C28.7656 15.3034 28.4097 15.1901 28.1205 15.1901H27.6978C26.9191 15.1901 26.3184 15.8016 26.3184 16.5944V26.9828V28.3569V28.8099H26.7634H28.0982H28.1056C28.3429 28.8023 28.5431 28.5985 28.5431 28.3569V18.731L34.7872 28.3569C34.9874 28.6966 35.3434 28.8099 35.6326 28.8099H36.0775C36.8562 28.8099 37.4643 28.1984 37.4643 27.4056C37.4569 23.3288 37.4569 19.2594 37.4569 15.1901ZM24.3013 15.1901C21.0458 15.1901 17.7903 15.1901 14.5348 15.1901C13.7562 15.1901 13.1555 15.8016 13.1555 16.5944V26.9828V27.3981V28.8023H14.5348H14.9427H22.9146C23.6933 28.8023 24.2939 28.1908 24.2939 27.3981C24.3013 23.3288 24.3013 19.2594 24.3013 15.1901ZM22.0766 26.5374H15.3876V17.455H22.0766V26.5374ZM0 28.8099H0.444944H1.79461H8.80989C10.1002 28.8099 11.1533 27.768 11.1533 26.4921V24.197C11.1533 22.9286 10.1076 21.8792 8.80989 21.8792V21.7886C10.1002 21.7886 11.1533 20.7467 11.1533 19.4708V17.4928C11.1533 16.2244 10.1076 15.175 8.80989 15.175H0.444944C0.200225 15.175 0 15.3789 0 15.628V26.9677V28.3418C0 28.3569 0 28.8099 0 28.8099ZM51.962 11.4454C48.2912 4.628 41.1796 0 33 0C24.8204 0 17.7088 4.628 14.038 11.4454H16.6631C20.0966 5.94921 26.1256 2.30268 33 2.30268C39.8744 2.30268 45.9034 5.94921 49.3369 11.4454H51.962ZM33 44C41.1796 44 48.2912 39.372 51.962 32.5546H49.3369C45.9034 38.0508 39.867 41.6973 33 41.6973C26.1256 41.6973 20.0966 38.0508 16.6631 32.5546H14.038C17.7088 39.372 24.8204 44 33 44ZM8.92112 26.5601H2.23213V22.7474H8.92112V26.5601Z" fill="white"/>
</g>
<defs>
<clipPath id="clip0_549_79">
<rect width="66" height="44" fill="white"/>
</clipPath>
</defs>
</svg>

<svg width="66" height="44" viewBox="0 0 66 44" fill="none" xmlns="http://www.w3.org/2000/svg"><g clip-path="url(#clip0_549_79)"><path d="M8.921 20.95H2.232v-3.518h6.69v3.519zM66 15.19h-1.839c-.334 0-.668.159-.846.453l-4.011 6.72-4.012-6.72c-.178-.294-.512-.453-.846-.453h-.422a1.39 1.39 0 00-1.402 1.404V28.81h1.787a.46.46 0 00.438-.453V18.89l3.3 5.36c.245.249.511.453.845.453h.623c.334 0 .6-.204.845-.453l3.3-5.36v9.467c0 .249.2.453.445.453h1.335a.45.45 0 00.445-.453C66 23.963 66 19.577 66 15.19zm-15.388 0h-1.787a.46.46 0 00-.437.453v10.894h-6.69V15.643a.45.45 0 00-.444-.453h-1.335a.45.45 0 00-.445.453v13.159h9.766c.78 0 1.38-.611 1.38-1.404-.008-4.07-.008-8.139-.008-12.208zm-13.155 0H35.67a.46.46 0 00-.438.453v9.671l-6.266-9.67c-.2-.34-.556-.454-.846-.454h-.422c-.779 0-1.38.612-1.38 1.404V28.81h1.788a.46.46 0 00.437-.453V18.73l6.244 9.626c.2.34.556.453.846.453h.444c.78 0 1.387-.612 1.387-1.404-.007-4.077-.007-8.147-.007-12.216zm-13.156 0h-9.766c-.779 0-1.38.612-1.38 1.404v12.208h9.76c.778 0 1.379-.611 1.379-1.404.007-4.07.007-8.139.007-12.208zm-2.224 11.347h-6.69v-9.082h6.69v9.082zM0 28.81h8.81c1.29 0 2.343-1.042 2.343-2.318v-2.295c0-1.268-1.045-2.318-2.343-2.318v-.09c1.29 0 2.343-1.042 2.343-2.318v-1.978c0-1.269-1.045-2.318-2.343-2.318H.445a.45.45 0 00-.445.453V28.81zm51.962-17.365C48.292 4.628 41.18 0 33 0S17.709 4.628 14.038 11.445h2.625C20.097 5.95 26.126 2.303 33 2.303c6.874 0 12.903 3.646 16.337 9.142h2.625zM33 44c8.18 0 15.291-4.628 18.962-11.445h-2.625c-3.434 5.496-9.47 9.142-16.337 9.142-6.874 0-12.903-3.646-16.337-9.142h-2.625C17.708 39.372 24.82 44 33 44zM8.921 26.56H2.232v-3.813h6.69v3.813z" fill="#fff"/></g><defs><clipPath id="clip0_549_79"><path fill="#fff" d="M0 0h66v44H0z"/></clipPath></defs></svg>
